Newaita/actions/24/draw-cross.svg

<svg height="24" viewBox="0 0 24 24" width="24" xmlns="http://www.w3.org/2000/svg"><path d="m8.929688 3.167969c-.542969 0-.988282.441406-.988282.988281v3.972656h-3.972656c-.546875 0-.988281.445313-.988281.988282v5.953124c0 .546876.441406.988282.988281.988282h3.972656v3.972656c0 .546875.445313.988281.988282.988281h5.953124c.546876 0 .988282-.441406.988282-.988281v-3.972656h3.972656c.546875 0 .988281-.441406.988281-.988282v-5.953124c0-.542969-.441406-.988282-.988281-.988282h-3.972656v-3.972656c0-.546875-.441406-.988281-.988282-.988281zm.988281 1.976562h3.980469v3.972657c0 .546874.441406.988281.984374.988281h3.976563v3.980469h-3.976563c-.542968 0-.984374.441406-.984374.984374v3.976563h-3.980469v-3.976563c0-.542968-.441407-.984374-.988281-.984374h-3.972657v-3.980469h3.972657c.546874 0 .988281-.441407.988281-.988281zm0 0" fill="#424242"/></svg>

<svg xmlns="http://www.w3.org/2000/svg" xmlns:xlink="http://www.w3.org/1999/xlink" width="24px" height="24px" viewBox="0 0 24 24" version="1.1">
<g id="surface1">
     <defs>
  <style id="current-color-scheme" type="text/css">
   .ColorScheme-Text { color:#424242; } .ColorScheme-Highlight { color:#eeeeee; }
  </style>
 </defs>
<path style="fill:currentColor" class="ColorScheme-Text" d="M 8.929688 3.167969 C 8.386719 3.167969 7.941406 3.609375 7.941406 4.15625 L 7.941406 8.128906 L 3.96875 8.128906 C 3.421875 8.128906 2.980469 8.574219 2.980469 9.117188 L 2.980469 15.070312 C 2.980469 15.617188 3.421875 16.058594 3.96875 16.058594 L 7.941406 16.058594 L 7.941406 20.03125 C 7.941406 20.578125 8.386719 21.019531 8.929688 21.019531 L 14.882812 21.019531 C 15.429688 21.019531 15.871094 20.578125 15.871094 20.03125 L 15.871094 16.058594 L 19.84375 16.058594 C 20.390625 16.058594 20.832031 15.617188 20.832031 15.070312 L 20.832031 9.117188 C 20.832031 8.574219 20.390625 8.128906 19.84375 8.128906 L 15.871094 8.128906 L 15.871094 4.15625 C 15.871094 3.609375 15.429688 3.167969 14.882812 3.167969 Z M 9.917969 5.144531 L 13.898438 5.144531 L 13.898438 9.117188 C 13.898438 9.664062 14.339844 10.105469 14.882812 10.105469 L 18.859375 10.105469 L 18.859375 14.085938 L 14.882812 14.085938 C 14.339844 14.085938 13.898438 14.527344 13.898438 15.070312 L 13.898438 19.046875 L 9.917969 19.046875 L 9.917969 15.070312 C 9.917969 14.527344 9.476562 14.085938 8.929688 14.085938 L 4.957031 14.085938 L 4.957031 10.105469 L 8.929688 10.105469 C 9.476562 10.105469 9.917969 9.664062 9.917969 9.117188 Z M 9.917969 5.144531 "/>
</g>
</svg>
